icons/r.svg

<svg xmlns="http://www.w3.org/2000/svg" viewBox="0 0 16 16"><path fill="#497ce3" d="M15.275 9.5c2.585-4.065-2.321-6.72-5.6-7.333C3.1.939-3.71 6.736 2.359 11.113A8.35 8.35 0 0 0 6 12.406V14h2.685v-1.488a13 13 0 0 0 2.289-.336c.475.913.882 1.824.882 1.824h3.05s-.991-1.657-1.623-2.7a5.45 5.45 0 0 0 1.992-1.8m-6.59 1.81v-.965h1a1.88 1.88 0 0 1 .777.9 11.5 11.5 0 0 1-1.777.065m2.005-2.717H8.685v-1.77h2.005a1.12 1.12 0 0 1 .668.9 1.06 1.06 0 0 1-.668.87m2.194 2.048-.092-.147a2.9 2.9 0 0 0-1.286-.6 2.54 2.54 0 0 0 2.464-2.589c-.022-1.849-1.88-2.355-2.813-2.355H6v5.883a5 5 0 0 1-1.069-.515c-4.651-3.083.566-7.166 5.6-6.3 2.514.432 6.274 2.3 4.293 5.165a4.37 4.37 0 0 1-1.94 1.458" data-iconColor="R"/></svg>

<!--
  - The MIT License (MIT)
  -
  - Copyright (c) 2015-2024 Elior "Mallowigi" Boukhobza
  -
  - Permission is hereby granted, free of charge, to any person obtaining a copy
  - of this software and associated documentation files (the "Software"), to deal
  - in the Software without restriction, including without limitation the rights
  - to use, copy, modify, merge, publish, distribute, sublicense, and/or sell
  - copies of the Software, and to permit persons to whom the Software is
  - furnished to do so, subject to the following conditions:
  -
  - The above copyright notice and this permission notice shall be included in all
  - copies or substantial portions of the Software.
  -
  - THE SOFTWARE IS PROVIDED "AS IS", WITHOUT WARRANTY OF ANY KIND, EXPRESS OR
  - IMPLIED, INCLUDING BUT NOT LIMITED TO THE WARRANTIES OF MERCHANTABILITY,
  - FITNESS FOR A PARTICULAR PURPOSE AND NONINFRINGEMENT. IN NO EVENT SHALL THE
  - AUTHORS OR COPYRIGHT HOLDERS BE LIABLE FOR ANY CLAIM, DAMAGES OR OTHER
  - LIABILITY, WHETHER IN AN ACTION OF CONTRACT, TORT OR OTHERWISE, ARISING FROM,
  - OUT OF OR IN CONNECTION WITH THE SOFTWARE OR THE USE OR OTHER DEALINGS IN THE
  - SOFTWARE.
  -
  -->

<svg  xmlns="http://www.w3.org/2000/svg" width="16px" height="16px" viewBox="0 0 16 16">
  <path fill="#497CE3" data-iconColor="R"
        d="M15.275,9.5c2.585-4.065-2.321-6.72-5.6-7.333C3.1,0.939-3.71,6.736,2.359,11.113A8.349,8.349,0,0,0,6,12.406V14H8.685V12.512a12.832,12.832,0,0,0,2.289-.336C11.449,13.089,11.856,14,11.856,14h3.05s-0.991-1.657-1.623-2.7A5.45,5.45,0,0,0,15.275,9.5Zm-6.59,1.81V10.345h1a1.877,1.877,0,0,1,.777.9A11.533,11.533,0,0,1,8.685,11.31ZM10.69,8.593H8.685V6.823H10.69a1.118,1.118,0,0,1,.668.9A1.059,1.059,0,0,1,10.69,8.593Zm2.194,2.048c-0.041-.066-0.072-0.117-0.092-0.147a2.922,2.922,0,0,0-1.286-.6A2.542,2.542,0,0,0,13.97,7.305c-0.022-1.849-1.88-2.355-2.813-2.355H6v5.883a4.873,4.873,0,0,1-1.069-.515c-4.651-3.083.566-7.166,5.6-6.3,2.514,0.432,6.274,2.3,4.293,5.165A4.372,4.372,0,0,1,12.884,10.641Z"
  />
</svg>
